X: 081
T: Trip to Cromer
%R: reel
M: C|
L: 1/8
Z: 2014 John Chambers <jc:trillian.mit.edu>
B: Chas & Sam Thompson "Twenty Four Country Dances for the Year 1802", London 1802, p.8 #1
F: http://folkopedia.efdss.org/images/4/41/Thompson_24_1802.PDF
K: A
|:\
e2ae cecA | dfdB GBGE |\
e2(ae) f2(af) | (ec)(Be) (cA)A2 :|
|:\
Aece deBe | ceAc BGE2 |\
agae fgaf | ecBe (cA)A2 :|
% - - - - - - - - - - - - - - - - - - - - - - - - -
%%begintext align
%% Half right and left and back again
%% lead down the middle one Cu: and
%% poussette
%%endtext
% - - - - - - - - - - - - - - - - - - - - - - - - -

%%sep 1 1 500
%%sep 1 1 500
